X: 1
T: Bean An Ti Ar Lar
M: 4/4
L: 1/8
R: reel
K: Dmaj
B||:AGFE D2FD|GEFE Ddcd|AGFE DEFD|1 EG=cA BGEB:|2 EG=cA BGEd||
cdec A3d|cdec ABcB|cdec ABAG|EG=cA BGEd|
cdec A3d|cdec ABcd|cdeg fdec|ABcA BdcB||
